X: 14814
T: Gärdebylåten
R: hornpipe
M: 4/4
K: Dmajor
FG|ABAF ABAF|A2 fed2c2|BdBG BdBG|B2gfe2d2|
c2>d2c2~B2|A2g2~f2e2|1 dcde fefg|a4z2:|2 d4 Acec|d4defg|
|:a4a2^ga|b2~a2=g2f2|g4 B3d|g2~f2e2d2|
c3d c2~B2|A2g2~f2e2|1 dcde fefg|a4z2fg:|2 d4Acec|d4z2||

